X:1
T:Title
%%score 1 { 2 | 3 }
L:1/8
Q:1/4=108
M:4/4
K:Eb
V:1 treble nm="Grand Piano, Soprano"
V:2 bass nm="Choir Pad, Jharkhand, anoymous, 1875"
V:3 bass 
V:1
 [EB]4 E2 [DF]2 | [EG]2 [DF]E [DA]2 [EG]2 | [DF]2 [FB]2 [EG]2 [Gc]2 | [F=A]3 [FA] [FB]2 [FB]2 | %4
w: By~Anonymous,~1875 * *||||
 [Ee]2 [Ac]2 [GB]2 [Gc]2 | [FA]2 [FA]2 [EG]2 E2 | [DA]2 [EG]2 [EG]2 [DF]2 | E8 |] %8
w: ||||
V:2
 G,4 B,2 B,2 | B,2 B,2 B,2 B,2 | B,2 B,2 B,2[K:treble] E2 | E3 E D2 D2 | E2 E2 E2 C2 | %5
 C2[K:bass] B,2 B,2 B,2 | B,2 B,2 C2 B,A, | G,8 |] %8
V:3
 E,4 G,2 F,2 | E,2 A,G, F,2 E,2 | B,,2 D,2 E,2 C,2 | C,3 C, B,,2 A,2 | G,2 A,2 E,2 =E,2 | %5
 F,2 D,2 E,2 G,2 | F,2 E,2 A,,2 B,,2 | E,8 |] %8

